X: 469
T: Bûselik Aranağme (Düyek)
C: ?
O: Turkey
F: http://compmusic.upf.edu/node/140
N: buselik--aranagme--duyek--1--
N: makam= buselik
N: form= aranagme
N: usul= duyek = 8/4
M: 8/4
L: 1/16
K: C    
Q: 1/4=204
%%MIDI tuningsystem comma53
z2 c4 B2 A2 ^G2 A4  | A2 c2 B2 c2 B2 cB A2 AB  | \
w:   |   | 
c2 c4 B2 A2 ^G2 A4  | 
w:   | 
A2 c2 B2 c2 B2 cB A4  | g2 a6 a6 e2  | \
w:   |   | 
e2 e2 e2 d2 c2 cB A4  | z2 B4 c2 {c}d4 c2 B2  | 
w:   |   | 
B2 A2 A2 ^G2 A8  | z2 c4 B2 A2 ^G2 A4  | \
w:   |   | 
A2 c2 B2 c2 B2 cB A2 AB  | 
w:   | 
c2 c4 B2 A2 ^G2 A4  | A2 c2 B2 c2 B2 cB A4  | \
w:   |   | 
g2 a6 a6 e2  | e2 e2 e2 d2 c2 cB A4  | 
w:   |   | 
z2 B4 c2 {c}d4 c2 B2  | B2 A2 A2 ^G2 A8  | |


